X: 40
M:6/8
L:1/8
Q:110
K:Bb
f2d f2g|f2e e3|c2A B>BA|G2F F3|A2F B2c|d2e f3|d2c dB2|e2f g3|d2e f>ed|c2

